images/svg/fb-blue.svg

<svg width="22" height="22" viewBox="0 0 22 22" fill="none" xmlns="http://www.w3.org/2000/svg">
<path fill-rule="evenodd" clip-rule="evenodd" d="M21.5 11.0632C21.5 5.26479 16.7984 0.563232 11 0.563232C5.20156 0.563232 0.5 5.26479 0.5 11.0632C0.5 16.3039 4.33906 20.6478 9.35938 21.4362V14.0993H6.69266V11.0632H9.35938V8.74995C9.35938 6.11885 10.9273 4.66432 13.3255 4.66432C14.4744 4.66432 15.6763 4.86964 15.6763 4.86964V7.45385H14.3516C13.048 7.45385 12.6402 8.26292 12.6402 9.09448V11.0632H15.552L15.087 14.0993H12.6406V21.4371C17.6609 20.6492 21.5 16.3053 21.5 11.0632Z" fill="#115DA3"/>
</svg>

<svg width="22" height="22" fill="none" xmlns="http://www.w3.org/2000/svg"><path fill-rule="evenodd" clip-rule="evenodd" d="M21.5 11.063c0-5.798-4.702-10.5-10.5-10.5S.5 5.265.5 11.063c0 5.24 3.84 9.585 8.86 10.373V14.1H6.692v-3.036h2.666V8.75c0-2.631 1.568-4.086 3.966-4.086 1.15 0 2.351.206 2.351.206v2.584h-1.324c-1.304 0-1.712.809-1.712 1.64v1.97h2.912l-.465 3.035H12.64v7.338c5.02-.788 8.859-5.132 8.859-10.374z" fill="#115DA3"/></svg>
